X: 10221
T: GLOOMY WINTERS NOW AWA
Q: "Slow"
%R: strathspey
B: "Edinburgh Repository of Music" v.1 p.22 #1
F: http://digital.nls.uk/special-collections-of-printed-music/pageturner.cfm?id=87776133
Z: 2015 John Chambers <jc:trillian.mit.edu>
N: There's a faint ':' after the 1st strain's double bar, but no final repeat symbol.
M: C
L: 1/8
K: Dm
A |\
d2d>e d>cA2 | f2f>a g>fec |\
d<da2 d>cAF | G<G A>^c dD D :|\
E |\
F2F>A G>FEG | F>EDF EAA2 |
f2fa g>feg | f>d f/e/d/c/ Ad de |\
f<fc'2 efg2 | f>edf eaHa2 |\
A2BA/G/ Adea/g/ | f>d f/e/d/c/ Ad d |]

%%sep 2 1 500
%%sep 1 1 500

